X: 205
T: Miss Carmichael's Jig
C: William Shepherd (17??-1812)
R: jig
B: William Shepherd "2nd Collection" 1800 p.20 #5
F: http://imslp.org/wiki/File:PMLP73094-Shepherd_Collections_HMT.pdf
Z: 2012 John Chambers <jc:trillian.mit.edu>
M: 6/8
L: 1/8
K: F
c |\
f2a f2a | b2g g>af | {f}e2c Tc>de | f>ag f>ce |\
f2a f2a | b2g {a}g2f | e2c c>de | f<ag f2 :|
|: A/B/ |\
c>AB c>d_e | d2B B2g/f/ | {f}e2c Tc>de | f>ag fcA |\
c>AB c>d_e | d2B B2g/f/ | {f}e>dc Tc>de | fca f2 :|
